svg/fluentui-system-icons/ic_fluent_weather_rain_snow_20_regular.svg

<svg width="20" height="20" viewBox="0 0 20 20" fill="none" xmlns="http://www.w3.org/2000/svg">
<path d="M10 4C12.4646 4 13.8627 5.5736 14.066 7.47399L14.1282 7.47399C15.7143 7.47399 17 8.71103 17 10.237C17 11.763 15.7143 13 14.1282 13L12.626 12.9993C12.6427 13.0492 12.6518 13.1027 12.6518 13.1583C12.6518 13.4344 12.428 13.6583 12.1518 13.6583C11.8757 13.6583 11.6518 13.4344 11.6518 13.1583C11.6518 13.1027 11.6609 13.0492 11.6776 12.9993L7.441 12.999L5.94503 15.7454C5.81287 15.9879 5.50918 16.0773 5.26672 15.9451C5.05119 15.8277 4.95659 15.5747 5.03105 15.3496L5.06699 15.2668L6.302 12.999L5.87179 13C4.28575 13 3 11.763 3 10.237C3 8.71103 4.28575 7.47399 5.87181 7.47399L5.93399 7.47399C6.13851 5.56111 7.53544 4 10 4ZM11.5 15C11.7761 15 12 15.2239 12 15.5C12 15.7761 11.7761 16 11.5 16C11.2239 16 11 15.7761 11 15.5C11 15.2239 11.2239 15 11.5 15ZM9.30172 14.0602C9.51724 14.176 9.61184 14.4253 9.53738 14.6471L9.50144 14.7287L8.93911 15.743C8.80696 15.9819 8.50327 16.0701 8.2608 15.9398C8.04528 15.824 7.95068 15.5747 8.02514 15.3529L8.06107 15.2713L8.62341 14.257C8.75556 14.0181 9.05925 13.9299 9.30172 14.0602ZM13.5 14C13.7761 14 14 14.2239 14 14.5C14 14.7761 13.7761 15 13.5 15C13.2239 15 13 14.7761 13 14.5C13 14.2239 13.2239 14 13.5 14ZM10 5C8.35056 5 6.9129 6.2703 6.9129 8.02495C6.9129 8.30297 6.65891 8.52113 6.36808 8.52112L5.81818 8.5211C4.81403 8.5211 4 9.29988 4 10.2606C4 11.2212 4.81403 12 5.81818 12H14.1818C15.186 12 16 11.2212 16 10.2606C16 9.29988 15.186 8.5211 14.1818 8.5211L13.6319 8.52112C13.3411 8.52113 13.0871 8.30297 13.0871 8.02495C13.0871 6.24779 11.6494 5 10 5Z" fill="#212121"/>
</svg>

<svg xmlns="http://www.w3.org/2000/svg" width="20" height="20"><path d="M10 4c2.465 0 3.863 1.574 4.066 3.474h.062c1.586 0 2.872 1.237 2.872 2.763C17 11.763 15.714 13 14.128 13h-1.502a.5.5 0 1 1-.948 0l-4.237-.001-1.496 2.746a.5.5 0 0 1-.914-.395l.036-.083 1.235-2.268-.43.001C4.286 13 3 11.763 3 10.237c0-1.526 1.286-2.763 2.872-2.763h.062C6.139 5.561 7.535 4 10 4Zm1.5 11a.5.5 0 1 1 0 1 .5.5 0 0 1 0-1Zm-2.198-.94a.49.49 0 0 1 .235.587l-.036.082-.562 1.014a.504.504 0 0 1-.678.197.49.49 0 0 1-.236-.587l.036-.082.562-1.014a.504.504 0 0 1 .679-.197ZM13.5 14a.5.5 0 1 1 0 1 .5.5 0 0 1 0-1ZM10 5C8.35 5 6.913 6.27 6.913 8.025c0 .278-.254.496-.545.496h-.55C4.814 8.521 4 9.3 4 10.261 4 11.22 4.814 12 5.818 12h8.364C15.186 12 16 11.221 16 10.26c0-.96-.814-1.739-1.818-1.739h-.55c-.29 0-.545-.218-.545-.496C13.087 6.248 11.65 5 10 5Z"/></svg>
